assets/images/logo.svg

<svg width="168" height="40" viewBox="0 0 168 40" fill="none" xmlns="http://www.w3.org/2000/svg">
<g clip-path="url(#clip0_254_686)">
<path d="M26.1595 32.3301H19.7695V34.0601H26.1595V32.3301Z" fill="#E0EDF8"/>
<path d="M85.8199 32.3301H79.4199V34.0601H85.8199V32.3301Z" fill="#E0EDF8"/>
<path d="M28.1194 29.2202V27.4902H16.1094V39.1702H28.1194V37.4402H18.3194V29.2202H28.1194Z" fill="#E0EDF8"/>
<path d="M11.76 39.1702V29.2502H2.21V39.2502H0V27.4902H14V39.1702H11.76Z" fill="#E0EDF8"/>
<path d="M48.3692 39.1698C45.7192 39.1698 44.6992 38.0198 44.6992 36.3498V30.3498C44.6992 28.6798 45.6992 27.5298 48.3692 27.5298H57.7792V29.2498H48.3692C47.3692 29.2498 46.9092 29.6298 46.9092 30.3198V36.3998C46.9092 37.0898 47.3792 37.4698 48.3692 37.4698H57.7792V39.1998L48.3692 39.1698Z" fill="#E0EDF8"/>
<path d="M71.3909 39.1702V29.2502H61.8409V39.2502H59.6309V27.4902H73.6309V39.1702H71.3909Z" fill="#E0EDF8"/>
<path d="M109.309 39.1702V29.2502H103.189V27.4902H117.469V29.2502H111.469V39.2502L109.309 39.1702Z" fill="#E0EDF8"/>
<path d="M155.859 36.68L156.959 34.96H163.499L164.339 35.79L163.499 36.68H155.859Z" fill="#E0EDF8"/>
<path d="M118.949 39.1702V27.4902H120.879V36.1702L132.499 27.4902H134.409V39.1702H132.489V30.0802L120.069 39.1702H118.949Z" fill="#E0EDF8"/>
<path d="M164.68 39.1702L158.68 29.7602L152.56 39.1702H150.07L157.83 27.4902H159.44L167.15 39.1702H164.68Z" fill="#E0EDF8"/>
<path d="M148.28 33.0302C148.704 32.9246 149.076 32.6711 149.329 32.3153C149.582 31.9596 149.7 31.5251 149.66 31.0902V30.0102C149.66 28.4502 148.66 27.4902 146.07 27.4902H136.57V39.1702H146.07C148.96 39.1702 149.78 37.9802 149.78 36.6502V34.9402C149.807 34.4935 149.669 34.0525 149.393 33.7006C149.116 33.3486 148.721 33.1101 148.28 33.0302ZM147.6 36.2302C147.6 37.2302 146.98 37.4402 146.1 37.4402H138.78V29.2502H146.07C147.07 29.2502 147.45 29.5102 147.45 30.1602V31.3702C147.45 32.0202 147.1 32.2802 146.07 32.2802H140.23V34.0102H146.07C146.95 34.0102 147.57 34.2702 147.57 35.0102L147.6 36.2302Z" fill="#E0EDF8"/>
<path d="M102.611 27.4902H99.9905L95.5905 32.2302H93.3105V33.9602H95.6405L100.061 39.1702H102.601L97.4205 32.9302L102.611 27.4902Z" fill="#E0EDF8"/>
<path d="M91.8406 31.6102H91.8506V27.4902H89.6406V39.1702H91.8506V34.3002H91.8406V31.6102Z" fill="#E0EDF8"/>
<path d="M87.7698 29.2202V27.4902H75.7598V39.1702H87.7698V37.4402H77.9598V29.2202H87.7698Z" fill="#E0EDF8"/>
<path d="M39.5798 27.4902H30.0098V39.1702H32.2098V29.2502H39.5798C40.5798 29.2502 41.0398 29.6302 41.0398 30.3202V32.0502C41.0398 32.7502 40.5698 33.1302 39.5798 33.1302H33.6698V34.8602H39.5798C42.2298 34.8602 43.2398 33.7102 43.2398 32.0402V30.3102C43.2398 28.6402 42.2298 27.4902 39.5798 27.4902Z" fill="#E0EDF8"/>
<path d="M143.381 20.2498C126.02 7.09212 104.834 -0.0292969 83.0507 -0.0292969C61.2674 -0.0292969 40.0813 7.09212 22.7207 20.2498C40.6607 10.4998 61.2107 4.07979 83.0507 4.07979C104.891 4.07979 125.451 10.5298 143.381 20.2498Z" fill="#E0EDF8"/>
<path d="M125.829 19.61C112.88 11.9381 98.1056 7.89014 83.0543 7.89014C68.003 7.89014 53.2286 11.9381 40.2793 19.61C67.6857 8.35613 98.4229 8.35613 125.829 19.61Z" fill="#E0EDF8"/>
</g>
<defs>
<clipPath id="clip0_254_686">
<rect width="167.17" height="39.17" fill="white"/>
</clipPath>
</defs>
</svg>

<svg width="168" height="40" viewBox="0 0 168 40" fill="none" xmlns="http://www.w3.org/2000/svg"><g clip-path="url(#a)" fill="#E0EDF8"><path d="M26.16 32.33h-6.39v1.73h6.39v-1.73Zm59.66 0h-6.4v1.73h6.4v-1.73Z"/><path d="M28.12 29.22v-1.73H16.11v11.68h12.01v-1.73h-9.8v-8.22h9.8Zm-16.36 9.95v-9.92H2.21v10H0V27.49h14v11.68h-2.24Zm36.61 0c-2.65 0-3.67-1.15-3.67-2.82v-6c0-1.67 1-2.82 3.67-2.82h9.41v1.72h-9.41c-1 0-1.46.38-1.46 1.07v6.08c0 .69.47 1.07 1.46 1.07h9.41v1.73l-9.41-.03Zm23.02 0v-9.92h-9.55v10h-2.21V27.49h14v11.68h-2.24Zm37.919 0v-9.92h-6.12v-1.76h14.28v1.76h-6v10l-2.16-.08Zm46.55-2.49 1.1-1.72h6.54l.84.83-.84.89h-7.64Zm-36.91 2.49V27.49h1.93v8.68l11.62-8.68h1.91v11.68h-1.92v-9.09l-12.42 9.09h-1.12Z"/><path d="m164.68 39.17-6-9.41-6.12 9.41h-2.49l7.76-11.68h1.61l7.71 11.68h-2.47Zm-16.4-6.14a1.83 1.83 0 0 0 1.38-1.94v-1.08c0-1.56-1-2.52-3.59-2.52h-9.5v11.68h9.5c2.89 0 3.71-1.19 3.71-2.52v-1.71a1.83 1.83 0 0 0-1.5-1.91Zm-.68 3.2c0 1-.62 1.21-1.5 1.21h-7.32v-8.19h7.29c1 0 1.38.26 1.38.91v1.21c0 .65-.35.91-1.38.91h-5.84v1.73h5.84c.88 0 1.5.26 1.5 1l.03 1.22Zm-44.989-8.74h-2.62l-4.4 4.74h-2.28v1.73h2.33l4.42 5.21h2.54l-5.18-6.24 5.19-5.44ZM91.84 31.61h.01v-4.12h-2.21v11.68h2.21V34.3h-.01v-2.69Zm-4.07-2.39v-1.73H75.76v11.68h12.01v-1.73h-9.81v-8.22h9.81Zm-48.19-1.73h-9.57v11.68h2.2v-9.92h7.37c1 0 1.46.38 1.46 1.07v1.73c0 .7-.47 1.08-1.46 1.08h-5.91v1.73h5.91c2.65 0 3.66-1.15 3.66-2.82v-1.73c0-1.67-1.01-2.82-3.66-2.82Zm103.801-7.24a99.882 99.882 0 0 0-120.66 0C40.66 10.5 61.21 4.08 83.05 4.08c21.84 0 42.4 6.45 60.33 16.17Z"/><path d="M125.829 19.61a83.918 83.918 0 0 0-85.55 0 112.609 112.609 0 0 1 85.55 0Z"/></g><defs><clipPath id="a"><path fill="#fff" d="M0 0h167.17v39.17H0z"/></clipPath></defs></svg>
